**kern	**silbe	**kern	**silbe
*ICvox	*	*ICvox	*
=1	=1	=1	=1
*G:	*	*G:	*
*M4/4	*	*M4/4	*
*clefG2	*	*clefG2	*
1r	.	1r	.
=2	=2	=2	=2
1r	.	1r	.
=3	=3	=3	=3
1r	.	1r	.
=4	=4	=4	=4
1r	.	1r	.
=5	=5	=5	=5
1r	.	1r	.
=6	=6	=6	=6
1r	.	1r	.
=7	=7	=7	=7
*M5/8	*	*M5/8	*
8%5r	.	8%5r	.
=8	=8	=8	=8
8%5r	.	8%5r	.
=9	=9	=9	=9
8%5r	.	8%5r	.
=10	=10	=10	=10
8%5r	.	8%5r	.
=11	=11	=11	=11
8%5r	.	8%5r	.
=12	=12	=12	=12
8%5r	.	8%5r	.
=13	=13	=13	=13
*M3/8	*	*M3/8	*
4.r	.	4.r	.
=14	=14	=14	=14
4.r	.	4.r	.
=15	=15	=15	=15
4.r	.	4.r	.
=16	=16	=16	=16
4.r	.	4.r	.
=17	=17	=17	=17
*M4/4	*	*M4/4	*
1r	.	1r	.
=18	=18	=18	=18
1r	.	1r	.
=19	=19	=19	=19
1r	.	1r	.
=20	=20	=20	=20
1r	.	1r	.
=21	=21	=21	=21
1r	.	1r	.
=22	=22	=22	=22
1r	.	1r	.
=23	=23	=23	=23
1r	.	1r	.
=24	=24	=24	=24
1r	.	1r	.
=25	=25	=25	=25
1r	.	1r	.
=26	=26	=26	=26
1r	.	1r	.
=27	=27	=27	=27
1r	.	1r	.
=28	=28	=28	=28
*clefF4	*	*clefC3	*
4r	.	1r	.
8r	.	.	.
8D	As	.	.
8B	I	.	.
4c	was	.	.
[8d	wal	.	.
=29	=29	=29	=29
8d]	_	1r	.
4c	king	.	.
[8B	down	.	.
8B]	_	.	.
4G	the	.	.
[8D	street	.	.
=30	=30	=30	=30
8D]	_	1r	.
4G	one	.	.
[8G	day	.	.
4G]	_	.	.
4r	.	.	.
=31	=31	=31	=31
2r	.	1r	.
8r	.	.	.
4c	a	.	.
[8d	man	.	.
=32	=32	=32	=32
8d]	_	1r	.
4d	came	.	.
c	_	.	.
d	_	.	.
[8c	up	.	.
8c]	_	.	.
4B-	to	.	.
cq	_	.	.
[8d	me	.	.
=33	=33	=33	=33
8d]	_	1r	.
4d	and	.	.
[8c	asked	.	.
8c]	_	.	.
4B-	me	.	.
[8d	what	.	.
=34	=34	=34	=34
8d]	_	1r	.
4d	the	.	.
dq	_	.	.
[8c	time	.	.
8c]	_	.	.
4B-	was	.	.
[8d	that	.	.
=35	=35	=35	=35
8d]	_	1r	.
4d	was	.	.
[8c	on	.	.
8c]	_	.	.
4B-	my	.	.
[8d	watch	.	.
=36	=36	=36	=36
16d]	_	1r	.
16c	_	.	.
[8d	_	.	.
4d_	_	.	.
4d]	_	.	.
4r	.	.	.
=37	=37	=37	=37
24d	Yeah	1r	.
24c	_	.	.
24B-	_	.	.
[8c	_	.	.
4c]	_	.	.
4r	.	.	.
4e-	I	.	.
=38	=38	=38	=38
8d	said	1r	.
16c	_	.	.
[16d	_	.	.
4d_	_	.	.
4d]	...	.	.
4r	.	.	.
=39	=39	=39	=39
1r	.	1r	.
=40	=40	=40	=40
4r	.	Eq cq	_
.	.	[2.F# [d	I
12r	.	.	.
12r	.	.	.
12D	Does	.	.
12B	a-	.	.
12B	-ny-	.	.
12B	-bo-	.	.
12B	-dy	8F#] d]	_
12d	real-	.	.
.	.	[8G [e	don't
12c	-ly	.	.
=41	=41	=41	=41
8B	know	4G] e]	_
8G	what	.	.
8r	.	2r	.
8G	time	.	.
12E	it	.	.
[6A	is	.	.
8A]	_	4r	.
8r	.	.	.
=42	=42	=42	=42
4r	.	Aq eq	_
.	.	[2.B [f#	care
12r	.	.	.
12r	.	.	.
12D	Does	.	.
12B	a-	.	.
12B	-ny-	.	.
12B	-bo-	.	.
12B	-dy	8B] f#]	_
12d	real-	.	.
.	.	[8c [g	_
[12c	-ly	.	.
=43	=43	=43	=43
8c]	_	4c] g]	_
Aq	_	.	.
[8B	care	.	.
4B]	_	4r	.
2r	.	8c g	a-
.	.	8d a	-bout
.	.	8r	.
.	.	cq aq	_
.	.	[8d [b	time
=44	=44	=44	=44
4r	.	2.d] b]	_
8r	.	.	.
8D	If	.	.
8B	so,	.	.
4c	I	.	.
.	.	4r	.
8d	can't	.	.
=45	=45	=45	=45
8B	i-	2r	.
8B	-ma-	.	.
8G	-gine	.	.
[8G	why	.	.
4G]	_	4r	.
4r	.	8d g	Oh,
.	.	Bq dq	_
.	.	[8c [e	no
=46	=46	=46	=46
4r	.	8c] e]	_
.	.	8B d	_
8r	.	8G B	,
8D	We've	[8B [d	no
8B	all	8B] d]	_
8c	got	8c e	_
8r	.	4r	.
8d	time	.	.
=47	=47	=47	=47
8c	e-	1r	.
8B	-nough	.	.
8G	to	.	.
[8G	cry	.	.
8G]	_	.	.
8r	.	.	.
4r	.	.	.
=48	=48	=48	=48
4r	.	1r	.
8r	.	.	.
8D	And	.	.
8B	I	.	.
4c	was	.	.
8d	wal	.	.
=49	=49	=49	=49
8r	.	1r	.
4c	king	.	.
8B-	down	.	.
8G	_	.	.
4G	the	.	.
8D	street	.	.
=50	=50	=50	=50
8r	.	1r	.
4G	one	.	.
[8G	day	.	.
4G]	_	.	.
4r	.	.	.
=51	=51	=51	=51
2r	.	1r	.
8r	.	.	.
4c	a	.	.
8d	pret	.	.
=52	=52	=52	=52
8r	.	1r	.
4d	ty	.	.
c	_	.	.
d	_	.	.
[8c	la	.	.
8c]	_	.	.
4B-	dy	.	.
cq	_	.	.
[8d	looked	.	.
=53	=53	=53	=53
8d]	_	1r	.
4d	at	.	.
[8c	me	.	.
8c]	_	.	.
4B-	and	.	.
[8d	said	.	.
=54	=54	=54	=54
8d]	_	1r	.
4d	her	.	.
dq	_	.	.
[8c	dia	.	.
8c]	_	.	.
4B-	mond	.	.
8d	watch	.	.
=55	=55	=55	=55
8r	.	1r	.
4d	had	.	.
[8c	stopped	.	.
8c]	_	.	.
4B-	cold	.	.
[8d	dead	.	.
=56	=56	=56	=56
16d]	_	1r	.
16c	_	.	.
[8d	_	.	.
4d_	_	.	.
4d_	_	.	.
8d]	_	.	.
8r	.	.	.
=57	=57	=57	=57
2r	.	1r	.
8r	.	.	.
8D	And	.	.
4e-	I	.	.
=58	=58	=58	=58
8d	said	1r	.
16c	_	.	.
[16d	_	.	.
2.d_	_	.	.
=59	=59	=59	=59
8d]	_	1r	.
8r	.	.	.
4r	.	.	.
2r	.	.	.
=60	=60	=60	=60
4r	.	Eq cq	_
.	.	[2.F# [d	I
12r	.	.	.
12r	.	.	.
12D	Does	.	.
12B	a-	.	.
12B	-ny-	.	.
12B	-bo-	.	.
12B	-dy	8F#] d]	_
12d	real-	.	.
.	.	[8G [e	don't
12c	-ly	.	.
=61	=61	=61	=61
8B	know	4G] e]	_
8G	what	.	.
8r	.	2r	.
8G	time	.	.
12E	it	.	.
Gq	_	.	.
[6A	is	.	.
8A]	_	4r	.
8r	.	.	.
=62	=62	=62	=62
4r	.	Aq eq	_
.	.	[2.B [f#	care
12r	.	.	.
12r	.	.	.
12D	Does	.	.
12B	a-	.	.
12B	-ny-	.	.
12B	-bo-	.	.
12B	-dy	8B] f#]	_
[12d	real	.	.
.	.	[8c [g	_
24d]	_	.	.
[24c	ly	.	.
=63	=63	=63	=63
8c]	_	4c] g]	_
Aq	_	.	.
[8B	care	.	.
4B]	_	4r	.
2r	.	8c g	a-
.	.	8d a	-bout
.	.	8r	.
.	.	cq aq	_
.	.	[8d [b	time
=64	=64	=64	=64
4r	.	2.d] b]	_
8r	.	.	.
8D	If	.	.
8B	so,	.	.
4c	I	.	.
.	.	4r	.
8d	can't	.	.
=65	=65	=65	=65
8B	i-	2r	.
8B	-ma-	.	.
8G	-gine	.	.
[8G	why	.	.
4G]	_	4r	.
4r	.	8d g	Oh
.	.	Bq dq	_
.	.	[8c [e	no
=66	=66	=66	=66
4r	.	8c] e]	_
.	.	8B d	_
8r	.	8G B	,
8D	We've	[8B [d	no
8B	all	8B] d]	_
8c	got	8c e	_
8r	.	4r	.
8d	time	.	.
=67	=67	=67	=67
16c	e-	1r	.
8B	-nough	.	.
[16G	to	.	.
8G]	_	.	.
8G	cry	.	.
2r	.	.	.
=68	=68	=68	=68
*	*	*clefF4	*
4r	.	1r	.
8r	.	.	.
8D	And	.	.
8B	I	.	.
4c	was	.	.
8d	wal	.	.
=69	=69	=69	=69
8r	.	1r	.
4c	king	.	.
8B-	down	.	.
Bq	_	.	.
8B-	_	.	.
4G	the	.	.
8D	street	.	.
=70	=70	=70	=70
8r	.	2r	.
4G	one	.	.
[8G	day	.	.
4G]	_	8r	.
.	.	16BB	Peo-
.	.	16BB	-ple
4r	.	16BB	run-
.	.	16BB	-ning
.	.	16BB	ev-
.	.	16BB	-'ry-
=71	=71	=71	=71
2r	.	4BB	-where
.	.	4r	.
8B-	Be-	2r	.
4c	-ing	.	.
[8d	pushed	.	.
=72	=72	=72	=72
8d]	_	12r	.
.	.	6BB	Don't
4d	and	.	.
.	.	6BB	know
c	_	.	.
d	_	.	.
[8c	shoved	.	.
.	.	[12C	where
8c]	_	8C]	_
4B-	by	16BB	to
.	.	16D	go
.	.	4r	.
cq	_	.	.
8d	peo	.	.
=73	=73	=73	=73
8r	.	4r	.
4d	ple	.	.
.	.	16r	.
.	.	16BB	I
c	_	8BB	don't
d	_	.	.
[8c	trying	.	.
8c]	_	8BB	know
4B-	to	16C	where
.	.	16BB	I
.	.	4D	am.
8d	beat	.	.
=74	=74	=74	=74
8r	.	4r	.
4d	the	.	.
.	.	8r	.
dq	_	8C	I
[8c	clock	.	.
8c]	,	8.C	can't
4B-	oh	.	.
.	.	[16C	see
.	.	8C]	_
[8d	no	[8C	past
=75	=75	=75	=75
8d]	,	16C]	_
.	.	16C	the
4d	I	8C	next
.	.	8C	step
[8c	just	8r	.
8c]	_	2r	.
4B-	don't	.	.
c#q	_	.	.
8d	know	.	.
=76	=76	=76	=76
8B-	,	4r	.
8B-	I	.	.
8G	don't	8E	Don't
[8B-	know	8E	have
8B-]	,	8E	time
8c	I	16E	to
.	.	16E	fi-
8B-	don't	16E	-gure
.	.	8E	out
c#q	_	.	.
[8d	know	.	.
.	.	16D	the
=77	=77	=77	=77
8d]	_	8.C	next
c#q	_	.	.
4.d	oh	.	.
.	.	[16C	step
.	.	16C]	_
.	.	8.r	.
8r	.	8AA	Don't
8C	And	8BB	have
4e-	I	8C	time
.	.	16C	to
.	.	[16BB	look
=78	=78	=78	=78
8d	said	16BB]	_
.	.	16AA	a-
16c	_	8BB	-round
[16d	_	.	.
4d_	_	4r	.
4d]	_	8r	.
.	.	8F	Just
8r	.	16E	run-
.	.	16E	-a-
[8f	yes	8D	-round
=79	=79	=79	=79
8f]	,	16D	(unintelligible)
.	.	8.C	_
4e	I	.	.
.	.	8r	.
dq	_	8E	_
[8e	said	.	.
8e]	_	16C	_
.	.	16D	_
8B	_	8r	.
4r	.	4r	.
=80	=80	=80	=80
*	*	*clefC3	*
4r	.	Eq cq	_
.	.	[2.F# [d	I
12r	.	.	.
12r	.	.	.
12D	Does	.	.
12B	a-	.	.
12B	-ny-	.	.
12B	-no-	.	.
12B	-dy	8F#] d]	_
12d	real-	.	.
.	.	[8G [e	don't
12c	-ly	.	.
=81	=81	=81	=81
8B	know	4G] e]	_
8G	what	.	.
8r	.	2r	.
8G	time	.	.
12E	it	.	.
Gq	_	.	.
[6A	is	.	.
8A]	_	4r	.
8r	.	.	.
=82	=82	=82	=82
4r	.	Aq eq	_
.	.	[2.B [f#	care
12r	.	.	.
12r	.	.	.
12D	Does	.	.
12B	a-	.	.
12B	-ny-	.	.
12B	-bo-	.	.
12B	-dy	8B] f#]	_
[12d	real	.	.
.	.	[8c [g	_
24d]	_	.	.
[24c	ly	.	.
=83	=83	=83	=83
8c]	_	4c] g]	_
Aq	_	.	.
[8B	care	.	.
4B]	_	4r	.
2r	.	8c g	a-
.	.	8d a	-bout
.	.	8r	.
.	.	cq aq	_
.	.	[8d [b	time
=84	=84	=84	=84
4r	.	2.d] b]	_
8r	.	.	.
8D	If	.	.
8B	so,	.	.
4c	I	.	.
.	.	4r	.
8d	can't	.	.
=85	=85	=85	=85
8B	i-	2r	.
8B	-ma-	.	.
8G	-gine	.	.
[8G	why	.	.
4G]	_	4r	.
4r	.	8d g	Oh,
.	.	Bq dq	_
.	.	[8c [e	no
=86	=86	=86	=86
4r	.	8c] e]	_
.	.	8B d	_
8r	.	8G B	,
8D	We've	[8B [d	no
8B	all	8B] d]	_
8c	got	8c e	_
8r	.	4r	.
8d	time	.	.
=87	=87	=87	=87
16c	e-	1r	.
8B	-nough	.	.
16G	to	.	.
8r	.	.	.
[8A	cry	.	.
4A]	_	.	.
4r	.	.	.
=88	=88	=88	=88
1r	.	1r	.
=89	=89	=89	=89
2r	.	1r	.
10f	Ev-	.	.
10e	-'ry-	.	.
10d	-bo-	.	.
10B	-dy's	.	.
[10d	worr	.	.
=90	=90	=90	=90
8d]	_	Eq cq	_
.	.	[2.F# [d	I
dq	_	.	.
8e	'yin	.	.
4r	.	.	.
2r	.	.	.
.	.	8F#] d]	_
.	.	[8G [e	don't
=91	=91	=91	=91
1r	.	4G] e]	_
.	.	2r	.
.	.	4r	.
=92	=92	=92	=92
2r	.	Aq eq	_
.	.	[2.B [f#	care
8B	I	.	.
8d	don't	.	.
8r	.	8B] f#]	_
8e	care	[8c [g	_
=93	=93	=93	=93
32d	_	4c] g]	_
[16.e	_	.	.
16.e]	_	.	.
32d	_	.	.
8B	_	4r	.
8r	.	.	.
2r	.	8c g	a-
.	.	8d a	-bout
.	.	8r	.
.	.	cq aq	_
.	.	[8d [b	time
=94	=94	=94	=94
2r	.	2.d] b]	_
8B	A-	.	.
8d	-bout	.	.
8r	.	4r	.
dq	_	.	.
[8e	time	.	.
=95	=95	=95	=95
4e]	_	2r	.
4r	.	.	.
2r	.	4r	.
.	.	8d g	Oh,
.	.	Bq dq	_
.	.	[8c [e	no
=96	=96	=96	=96
2r	.	8c] e]	_
.	.	8B d	_
.	.	8G B	,
.	.	[8B [d	no
8B	I	8B] d]	_
8d	don't	8c e	_
8r	.	4r	.
8e	care	.	.
=97	=97	=97	=97
32d	_	1r	.
[16.e	_	.	.
16.e]	_	.	.
32d	_	.	.
8B	_	.	.
8r	.	.	.
2r	.	.	.
=98	=98	=98	=98
1r	.	1r	.
=99	=99	=99	=99
1r	.	1r	.
=100	=100	=100	=100
1r	.	1r	.
*-	*-	*-	*-
!!!ENC: Nathaniel Condit-Schultz